X: 620
T: Sijie diaocaiya
L: 1/8
M: 2/4
K: A
Be2d [I:setbarnb 1]| 
B4 | 
fe2B | 
A4 | 
Be2d | 
B2A2 | 
BF2E | 
D2z2 | 
EE2F | 
B2d B | 
BB2E | 
F2z2 | 
BB2B | 
d B A F | 
E2E F | 
A2A F | 
E F E D | 
B,2z2 |]

@@@ Tune index: 9494
